X: 26608
T: Mick's
R: polka
M: 2/4
K: Gminor
|:B2 AG|FA Dc|Bc/B/ AG|Ad dc|
Bc/B/ AG|FA Dc|BG AF|G2 GA:|
Bd dc/B/|Ac cA|Bd dc/B/|AF FA|
Bd dc/B/|Ac c=e|fd cA|G2 GA|
Bd dc/B/|Ac cA|Bd dc/B/|AF F2|
f=e dc|Ac dc|Bd Ad|G2 GA||

